X:1
T:The Sheep Shearing
M:3/4
L:1/4
K:G
 D/2D/2| G G D| G2 G/2A/2| B B A| B2d/2-B/2| G B d| d c B| A2B/2-c/2|\
 d c B| c2 B/2c/2| d G A| D2 D/2D/2| G G A| B c e| d2 B/2A/2| G B d|\
 c F F| G2||

